X:1
T:Jesus of Nazareth, Healer of Men
T:Jesus of Nazareth, Healer of Men
T:Hart Pease Danks
T:John Ralston Clements, 1902
T:Public Domain Courtesy of the Cyber Hymnal™
C:Hart Pease Danks
Z:Public Domain
Z:Courtesy of the Cyber Hymnal™
%%score ( 1 2 ) ( 3 4 )
L:1/8
Q:1/4=115
M:3/4
K:Eb
V:1 treble 
V:2 treble 
V:3 bass 
V:4 bass 
V:1
 [EG]2 E2 [EF]2 | [EA]3 [EG] [EG]2 | [EG]2 E2 [DF]2 | E6 | E2 [EF]2 [EG]2 | [EA]2 [EB]2 [Ec]2 | %6
w: 1.~Je- sus of|Na- za- reth,|heal- er of|men,|Cur- er of|halt and of|
w: 2.~Je- sus of|Na- za- reth,|cur- er of|sin,|Seek- er for|lost and de-|
w: 3.~Je- sus of|Na- za- reth,|dy- ing for|all,|Hang- ing in|pain on the|
 [EB]6- | [EB]4 z2 | [Ge]2 [Ad]2 [Ac]2 | [GB]2 [EG]2 E2 | [Ec]2 [EB]2 [EG]2 | [DF]6 | E2 E2 E2 | %13
w: blind;||Work- er of|won- ders, a-|gain and a-|gain,|Seek- ing the|
w: filed;||Striv- ing so|kind- ly the|stray- ing to|win,|Lov- ing each|
w: tree;||Suff- ering so|meek- ly, that|we who may|call,|Par- don thro’|
 [DF]2 [DG]3 [DF] | E6- | [B,E]4 z2 ||"^Refrain" [DF]2 [EG]2 [FA]2 | [FA]3 [EG] [DF]2 | %18
w: sad ones to|find.||||
w: pen- i- tent|child.||Je- sus of|Na- za- reth,|
w: Him may have|free.||||
 [EG]2 [FA]2 [^Fc]2 | [GB]6 | [Ac]2 [Ad]2 [Ae]2 | [Ee]4 [EF]2 | [EG]4 [DF]2 | E6 |] %24
w: ||||||
w: tell it a-|gain:|Died on the|cross for|sin- ful|men.|
w: ||||||
V:2
 x2 E2 x2 | x6 | x2 E2 x2 | E6 | E2 x4 | x6 | x6 | x6 | x6 | x4 E2 | x6 | x6 | E2 E2 E2 | x6 | %14
 E4 C2 | x6 || x6 | x6 | x6 | x6 | x6 | x6 | x6 | E6 |] %24
V:3
 [E,B,]2 [E,G,]2 [E,A,]2 | [E,C]3 [E,B,] [E,B,]2 | [B,,B,]2 [B,,G,]2 [B,,A,]2 | [E,G,]6 | %4
 [E,G,]2 [E,A,]2 [_D,B,]2 | [C,A,]2 [B,,G,]2 [A,,A,]2 | [E,G,]6- | [E,G,]4 z2 | %8
 [E,B,]2 [E,C]2 [E,D]2 | [E,E]2 [E,B,]2 [E,G,]2 | [A,,A,]2 [E,G,]2 [E,B,]2 | (B,4 A,2) | %12
 [E,G,]2 [E,G,]2 [C,G,]2 | [B,,A,]2 [B,,B,]3 [B,,A,] | G,4- A,2 | [E,G,]4 z2 || %16
 [B,,B,]2 [B,,B,]2 [B,,B,]2 | [B,,B,]3 [B,,B,] [B,,B,]2 | [E,B,]2 [E,B,]2 [E,=A,]2 | B,4 E2 | %20
 [A,E]2 [A,D]2 [A,C]2 | [G,B,]4 [A,C]2 | B,4 [B,,A,]2 | [E,G,]6 |] %24
V:4
 x6 | x6 | x6 | x6 | x6 | x6 | x6 | x6 | x6 | x6 | x6 | B,,6 | x6 | x6 | E,6- | x6 || x6 | x6 | %18
 x6 | E,6 | x6 | x6 | B,4 x2 | x6 |] %24

